X:17
T:NEW YORK THE NEW WAY
B:John of the Greeny Cheshire Way
N: John Offord, Reproduced with permission
M:3/2
L:1/8
K:Bb
P:1
EGFE DFED C3 B| ABcd c3 C DEFD | EGFE DFED C3 B | FBAc B3 B, DEFD ||
P:2
E2 G2 _AGFE DEFD| CcBd c3 C DEFD | E2 G2 _AGFE DEFD | B,B=Ac B3 B, DEFD
||
P:3
B2 d2 edcB ABcA| GcBd c3 C DEFD | E2 d2 edcB ABcA | FBAc B3 B, DEFD ||
P:4
BGEG FDB,D C3 c| ABcd c3 C DEFD | BGEG FDB,D C3 e | d2 B2 B3 B, DEFD |]
